X:1
T:Depression Blues
M:4/4
L:1/8
K:C
 c| cc _Bc G C2 c| cG GF _E2 C2| C2- E6| z4 z2 z c| cc Ac G C2| c|\
 cc _BcG-F _E2| C8| z4 z2 ^AB| d2 B2 A G3| c2 AG F2 E2| C8| z4 z2 z||\
